!!!OTL: Totenamt Grossmechtiger ewiger got,
!!!ARE: Europa, Osteuropa, Tschechoslowakei, Boehmen
!!!ARD1: Europa%Osteuropa%Tschechoslowakei@Boehmen#?
!!!ARL1: ? / ?
!!!ARD2: Europa%Osteuropa%Tschechoslowakei@
!!!ARL2: 49.75/15@
!!!YOR: 3, S. 162
!!    1531 gedruckt
!!!SCT: Q1061C
!!!YEM: Copyright 1995, estate of Helmut Schaffrath.
**kern
*ICvox
*Ivox
!! Irregular meter.
*MX
*k[b-e-]
*g:
{8fn
=1
4g
4g
4fn
4g
=2
4b-
4b-
2a}
{8g
=3
4a
4dd
4dd
4cc
=4
4cc
4b-
2a}
{8b-
=5
4cc
4a
4b-
4g
=6
4b-
4a
2g}
{8g
=7
4d
4fn
4g
4a
=8
4b-
4a
1g}
==
!!!AGN: geistlich
!! Melodievergleich zu Q0061, anderes Lied. Taktart in "FREI" geaendert.
!!!ONB: ESAC (Essen Associative Code) Database: BALLADE
!!!AMT: irregular
!!!AIN: vox
!!!EED: Helmut Schaffrath
!!!EEV: 1.0
*-
!!!title: @{OTL} [@{SCT}]
